SVG_Azure_All/Container App Environment.svg

<?xml version="1.0" encoding="UTF-8" standalone="no"?>
<!-- Generated by Microsoft Visio, SVG Export Container App Environment.svg Page-1 -->

<svg
   xmlns:dc="http://purl.org/dc/elements/1.1/"
   xmlns:cc="http://creativecommons.org/ns#"
   xmlns:rdf="http://www.w3.org/1999/02/22-rdf-syntax-ns#"
   xmlns:svg="http://www.w3.org/2000/svg"
   xmlns="http://www.w3.org/2000/svg"
   xmlns:sodipodi="http://sodipodi.sourceforge.net/DTD/sodipodi-0.dtd"
   xmlns:inkscape="http://www.inkscape.org/namespaces/inkscape"
   width="0.78735679in"
   height="0.78735679in"
   viewBox="0 0 56.689597 56.69"
   xml:space="preserve"
   class="st5"
   version="1.1"
   id="svg40"
   sodipodi:docname="Container App Environment.svg"
   style="font-size:12px;overflow:visible;color-interpolation-filters:sRGB;fill:none;fill-rule:evenodd;stroke-linecap:square;stroke-miterlimit:3"
   inkscape:version="0.92.5 (2060ec1f9f, 2020-04-08)"><metadata
   id="metadata44"><rdf:RDF><cc:Work
       rdf:about=""><dc:format>image/svg+xml</dc:format><dc:type
         rdf:resource="http://purl.org/dc/dcmitype/StillImage" /></cc:Work></rdf:RDF></metadata><sodipodi:namedview
   pagecolor="#ffffff"
   bordercolor="#666666"
   borderopacity="1"
   objecttolerance="10"
   gridtolerance="10"
   guidetolerance="10"
   inkscape:pageopacity="0"
   inkscape:pageshadow="2"
   inkscape:window-width="640"
   inkscape:window-height="480"
   id="namedview42"
   showgrid="false"
   inkscape:zoom="1.4193119"
   inkscape:cx="37.795128"
   inkscape:cy="37.786193"
   inkscape:window-x="0"
   inkscape:window-y="0"
   inkscape:window-maximized="0"
   inkscape:current-layer="svg40" />
	<style
   type="text/css"
   id="style2">
	<![CDATA[
		.st1 {fill:#949494;stroke:none;stroke-linecap:butt;stroke-width:34}
		.st2 {fill:url(#grad0-8);stroke:none;stroke-linecap:butt;stroke-width:34}
		.st3 {fill:#552f99;stroke:none;stroke-linecap:butt;stroke-width:34}
		.st4 {fill:#b77af4;fill-opacity:0.75;stroke:none;stroke-linecap:butt;stroke-width:34}
		.st5 {fill:none;fill-rule:evenodd;font-size:12px;overflow:visible;stroke-linecap:square;stroke-miterlimit:3}
	]]>
	</style>

	<defs
   id="Patterns_And_Gradients">
		<linearGradient
   id="grad0-8"
   x1="0"
   y1="73.914166"
   x2="22.094954"
   y2="73.914166"
   gradientTransform="scale(0.76985903,1.2989391)"
   gradientUnits="userSpaceOnUse">
			<stop
   offset="0"
   stop-color="#773adc"
   stop-opacity="1"
   id="stop4" />
			<stop
   offset="1"
   stop-color="#b77af4"
   stop-opacity="1"
   id="stop6" />
		</linearGradient>
	</defs>
	<g
   id="g38"
   transform="translate(-34.000441,-34.0043)">
		<title
   id="title10">Page-1</title>
		<g
   id="group6141-1"
   transform="translate(34,-34.0157)">
			<title
   id="title12">Container App Environment</title>
			<g
   id="group6142-2">
				<title
   id="title14">Sheet.6142</title>
				<g
   id="shape6143-3">
					<title
   id="title16">Sheet.6143</title>
					<path
   d="M 26.93,94.94 H 0 V 71.91 C 0,69.79 1.77,68.02 3.9,68.02 H 26.93 Z M 3.19,91.76 h 20.2 V 71.2 H 3.9 c -0.36,0 -0.71,0.36 -0.71,0.71 z m 53.5,3.18 H 29.76 V 68.02 H 52.8 c 2.12,0 3.89,1.77 3.89,3.89 z M 33.31,91.4 H 53.5 V 71.91 c 0,-0.35 0,-0.71 -0.35,-0.71 H 33.66 v 20.2 z m -6.38,33.31 H 3.9 c -2.13,0 -3.9,-1.77 -3.9,-3.9 V 97.78 H 26.93 Z M 3.19,100.97 v 19.84 c 0,0.36 0.35,0.36 0.71,0.36 h 19.49 v -20.2 z M 52.8,124.71 H 29.76 V 97.78 h 26.93 v 23.03 c 0,2.13 -1.77,3.9 -3.89,3.9 z M 33.31,121.17 H 52.8 c 0.35,0 0.35,-0.36 0.35,-0.36 v -19.84 h -20.2 v 20.2 z"
   class="st1"
   id="path18"
   inkscape:connector-curvature="0"
   style="fill:#949494;stroke:none;stroke-width:34;stroke-linecap:butt" />
				</g>
				<g
   id="shape6144-5"
   transform="translate(27.9921,-13.8189)">
					<title
   id="title21">Sheet.6144</title>
					<path
   d="m 17.01,102.39 c 0,-0.36 -0.36,-0.71 -0.71,-0.71 L 0.35,96.01 C 0,96.01 0,96.36 0,96.36 v 27.99 c 0,0.36 0.35,0.36 0.35,0.36 l 15.95,-6.38 c 0.35,0 0.71,-0.35 0.71,-0.71 z"
   class="st2"
   id="path23"
   inkscape:connector-curvature="0"
   style="fill:url(#grad0-8);stroke:none;stroke-width:34;stroke-linecap:butt" />
				</g>
				<g
   id="shape6145-9"
   transform="translate(12.0472,-13.8189)">
					<title
   id="title26">Sheet.6145</title>
					<path
   d="M 15.94,96.01 0.35,98.84 C 0,98.84 0,99.2 0,99.55 v 21.62 c 0,0.35 0,0.35 0.35,0.35 l 15.95,3.19 c 0.35,0 0.35,0 0.71,-0.36 V 96.36 c -0.36,0 -0.71,-0.35 -1.07,-0.35 z"
   class="st3"
   id="path28"
   inkscape:connector-curvature="0"
   style="fill:#552f99;stroke:none;stroke-width:34;stroke-linecap:butt" />
				</g>
				<g
   id="shape6146-11"
   transform="translate(14.1732,-17.0079)">
					<title
   id="title31">Sheet.6146</title>
					<path
   d="M 6.73,103.45 V 124 l 5.32,0.71 V 102.74 Z M 0,104.51 v 18.07 l 4.61,0.71 V 103.8 Z"
   class="st4"
   id="path33"
   inkscape:connector-curvature="0"
   style="fill:#b77af4;fill-opacity:0.75;stroke:none;stroke-width:34;stroke-linecap:butt" />
				</g>
			</g>
		</g>
	</g>
</svg>

<?xml version="1.0" encoding="UTF-8" standalone="no"?>
<!DOCTYPE svg PUBLIC "-//W3C//DTD SVG 1.1//EN" "http://www.w3.org/Graphics/SVG/1.1/DTD/svg11.dtd">
<!-- Generated by Microsoft Visio, SVG Export Container App Environment.svg Page-1 -->
<svg xmlns="http://www.w3.org/2000/svg" xmlns:xlink="http://www.w3.org/1999/xlink" xmlns:ev="http://www.w3.org/2001/xml-events"
		width="1.73185in" height="1.73206in" viewBox="0 0 124.693 124.709" xml:space="preserve" color-interpolation-filters="sRGB"
		class="st5">
	<style type="text/css">
	<![CDATA[
		.st1 {fill:#949494;stroke:none;stroke-linecap:butt;stroke-width:34}
		.st2 {fill:url(#grad0-8);stroke:none;stroke-linecap:butt;stroke-width:34}
		.st3 {fill:#552f99;stroke:none;stroke-linecap:butt;stroke-width:34}
		.st4 {fill:#b77af4;fill-opacity:0.75;stroke:none;stroke-linecap:butt;stroke-width:34}
		.st5 {fill:none;fill-rule:evenodd;font-size:12px;overflow:visible;stroke-linecap:square;stroke-miterlimit:3}
	]]>
	</style>

	<defs id="Patterns_And_Gradients">
		<linearGradient id="grad0-8" x1="0" y1="0" x2="1" y2="0" gradientTransform="rotate(-90 0.5 0.5)">
			<stop offset="0" stop-color="#773adc" stop-opacity="1"/>
			<stop offset="1" stop-color="#b77af4" stop-opacity="1"/>
		</linearGradient>
	</defs>
	<g>
		<title>Page-1</title>
		<g id="group6022-1" transform="translate(34,-34.0157)">
			<title>Container App Environment</title>
			<g id="group6023-2">
				<title>Sheet.6023</title>
				<g id="shape6024-3">
					<title>Sheet.6024</title>
					<path d="M26.93 94.94 L0 94.94 L0 71.91 C0 69.79 1.77 68.02 3.9 68.02 L26.93 68.02 L26.93 94.94 ZM3.19 91.76
								 L23.39 91.76 L23.39 71.2 L3.9 71.2 C3.54 71.2 3.19 71.56 3.19 71.91 L3.19 91.76 ZM56.69 94.94 L29.76
								 94.94 L29.76 68.02 L52.8 68.02 C54.92 68.02 56.69 69.79 56.69 71.91 L56.69 94.94 ZM33.31 91.4 L53.5
								 91.4 L53.5 71.91 C53.5 71.56 53.5 71.2 53.15 71.2 L33.66 71.2 L33.66 91.4 L33.31 91.4 ZM26.93 124.71
								 L3.9 124.71 C1.77 124.71 0 122.94 0 120.81 L0 97.78 L26.93 97.78 L26.93 124.71 ZM3.19 100.97 L3.19
								 120.81 C3.19 121.17 3.54 121.17 3.9 121.17 L23.39 121.17 L23.39 100.97 L3.19 100.97 ZM52.8 124.71
								 L29.76 124.71 L29.76 97.78 L56.69 97.78 L56.69 120.81 C56.69 122.94 54.92 124.71 52.8 124.71 ZM33.31
								 121.17 L52.8 121.17 C53.15 121.17 53.15 120.81 53.15 120.81 L53.15 100.97 L32.95 100.97 L32.95 121.17
								 L33.31 121.17 Z" class="st1"/>
				</g>
				<g id="shape6025-5" transform="translate(27.9921,-13.8189)">
					<title>Sheet.6025</title>
					<path d="M17.01 102.39 C17.01 102.03 16.65 101.68 16.3 101.68 L0.35 96.01 C0 96.01 0 96.36 0 96.36 L0 124.35
								 C0 124.71 0.35 124.71 0.35 124.71 L16.3 118.33 C16.65 118.33 17.01 117.98 17.01 117.62 L17.01 102.39
								 Z" class="st2"/>
				</g>
				<g id="shape6026-9" transform="translate(12.0472,-13.8189)">
					<title>Sheet.6026</title>
					<path d="M15.94 96.01 L0.35 98.84 C0 98.84 0 99.2 0 99.55 L0 121.17 C0 121.52 0 121.52 0.35 121.52 L16.3 124.71
								 C16.65 124.71 16.65 124.71 17.01 124.35 L17.01 96.36 C16.65 96.36 16.3 96.01 15.94 96.01 Z"
							class="st3"/>
				</g>
				<g id="shape6027-11" transform="translate(14.1732,-17.0079)">
					<title>Sheet.6027</title>
					<path d="M6.73 103.45 L6.73 124 L12.05 124.71 L12.05 102.74 L6.73 103.45 ZM0 104.51 L0 122.58 L4.61 123.29 L4.61
								 103.8 L0 104.51 Z" class="st4"/>
				</g>
			</g>
		</g>
	</g>
</svg>
